svg/app-engine.svg

<svg viewBox="0 0 20 20" xmlns="http://www.w3.org/2000/svg">
<rect width="100%" height="100%" fill="#4285F4"/>
<path d="M20 10.7271V20H10.1743L1.14124 10.967C1.19839 11.0159 1.27187 11.0568 1.36167 11.0894H3.5824C3.53341 10.771 3.50892 10.4444 3.50892 10.1179C3.50892 9.64432 3.55791 9.18711 3.65588 8.74623L4.51315 9.61166C4.51055 9.66366 4.50712 9.71649 4.50365 9.76989C4.49624 9.88413 4.48865 10.001 4.48865 10.1179C4.48865 13.155 6.95431 15.6289 9.99965 15.6289C13.045 15.6289 15.5106 13.155 15.5106 10.1179C15.5106 7.07252 13.045 4.60686 9.99965 4.60686C9.85269 4.60686 9.71389 4.61503 9.5751 4.63136L8.69334 3.7496L8.72599 3.69245L8.70967 3.75776C9.12605 3.66795 9.55877 3.62713 9.99965 3.62713C10.4569 3.62713 10.9059 3.67612 11.3468 3.76593L10.5222 1.47989C10.4895 1.39008 10.4487 1.30843 10.3997 1.25128L18.6131 9.45654L16.3434 8.74623C16.4414 9.18711 16.4904 9.64432 16.4904 10.1179C16.4904 10.4444 16.4659 10.771 16.4169 11.0894H18.6376C18.8417 11.0241 18.9805 10.9016 18.9805 10.7057V9.84027C18.9805 9.75862 18.956 9.69331 18.907 9.63616L20 10.7271Z" fill="#3E7AE3"/>
<path d="M9.99971 11.3785C10.3222 11.3785 10.6455 11.2552 10.8913 11.0086C11.3844 10.5155 11.3844 9.717 10.8913 9.22469C10.6455 8.97812 10.3222 8.85566 9.99971 8.85566C9.6764 8.85566 9.35391 8.97812 9.10816 9.22469C8.61502 9.71782 8.61502 10.5163 9.10816 11.0086C9.35472 11.2552 9.6764 11.3785 9.99971 11.3785Z" fill="#3E7AE3"/>
<path fill-rule="evenodd" clip-rule="evenodd" d="M5.81946 10.1179C5.81946 7.80734 7.68912 5.93768 9.99965 5.93768C12.3102 5.93768 14.1798 7.80734 14.1798 10.1179C14.1798 12.4284 12.3102 14.2981 9.99965 14.2981C7.68912 14.2981 5.81946 12.4284 5.81946 10.1179ZM8.12183 12.1671C8.6117 12.657 9.28935 12.9673 10.0405 12.9673C11.5427 12.9673 12.7674 11.7426 12.7674 10.2403C12.7674 9.48921 12.4571 8.81156 11.9673 8.3217L11.4448 8.83606C11.0692 8.46866 10.5712 8.25638 10.0405 8.25638C9.50979 8.25638 9.01176 8.46866 8.63619 8.83606C7.86874 9.61168 7.86874 10.869 8.63619 11.6446L8.12183 12.1671Z" fill="#3E7AE3"/>
<path d="M11.3435 3.76743C10.9093 3.67565 10.4595 3.6267 9.99807 3.6267C9.5558 3.6267 9.12428 3.67134 8.70747 3.7556L9.42278 1.47917C9.47889 1.27354 9.6103 1.1364 9.79943 1.1364H10.1435C10.3326 1.1364 10.4602 1.27354 10.5203 1.47917L11.3435 3.76743Z" fill="white"/>
<path fill-rule="evenodd" clip-rule="evenodd" d="M11.4453 8.84036L11.9665 8.31939C12.4593 8.81186 12.7644 9.49221 12.7644 10.2427C12.7644 11.7441 11.5432 12.9651 10.042 12.9651C9.29172 12.9651 8.61119 12.6598 8.11819 12.1672L8.63934 11.6466C7.86577 10.873 7.86577 9.61375 8.63934 8.84036C9.01402 8.46604 9.51205 8.25898 10.0425 8.25898C10.5717 8.25898 11.0712 8.4655 11.4453 8.83929V8.84036ZM9.99985 11.3785C10.3222 11.3785 10.6454 11.2554 10.891 11.009C11.3839 10.5164 11.3839 9.71755 10.891 9.22491C10.6454 8.9784 10.3222 8.85578 9.99985 8.85578C9.67662 8.85578 9.3541 8.9784 9.10796 9.22491C8.61513 9.71791 8.61513 10.5162 9.10796 11.009C9.3541 11.2554 9.67662 11.3785 9.99985 11.3785Z" fill="white"/>
<path fill-rule="evenodd" clip-rule="evenodd" d="M9.99958 4.6086C6.95729 4.6086 4.49101 7.0747 4.49101 10.1175C4.49101 13.1595 6.95729 15.6263 9.99958 15.6263C13.0419 15.6263 15.508 13.1595 15.508 10.1175C15.5082 7.0747 13.0419 4.6086 9.99958 4.6086ZM9.99958 14.2968C7.69088 14.2968 5.81943 12.4255 5.81943 10.1174C5.81943 7.80865 7.69088 5.9372 9.99958 5.9372C12.3081 5.9372 14.1792 7.80865 14.1792 10.1174C14.1794 12.4255 12.3083 14.2968 9.99958 14.2968Z" fill="white"/>
<path d="M18.6393 9.46498L16.3426 8.74322C16.4381 9.18638 16.4896 9.64586 16.4896 10.1172C16.4896 10.4469 16.4645 10.7706 16.4173 11.0869H18.6391C18.8444 11.0268 18.9815 10.8994 18.9815 10.71V9.84109C18.9817 9.65214 18.8445 9.52109 18.6393 9.46498Z" fill="white"/>
<path d="M3.50943 10.117C3.50943 9.64566 3.56088 9.18636 3.65626 8.74302L1.35975 9.46478C1.15448 9.52107 1.01733 9.65212 1.01733 9.84143V10.7102C1.01733 10.8992 1.15448 11.0266 1.35975 11.0867H3.58168C3.53435 10.7706 3.50943 10.4467 3.50943 10.117Z" fill="white"/>
</svg>

<svg xmlns="http://www.w3.org/2000/svg" viewBox="0 0 20 20">
  <rect width="100%" height="100%" fill="#4285F4"/>
  <path fill="#3E7AE3" d="M20 10.727V20h-9.826l-9.033-9.033c.057.049.13.09.22.122h2.221a6.406 6.406 0 0 1-.073-.971c0-.474.049-.93.147-1.372l.857.866c-.002.052-.006.104-.01.158-.007.114-.014.231-.014.348a5.514 5.514 0 0 0 5.51 5.51 5.514 5.514 0 0 0 5.512-5.51A5.509 5.509 0 0 0 10 4.607c-.147 0-.286.008-.425.024l-.882-.881.033-.058-.016.066c.416-.09.849-.13 1.29-.13.457 0 .906.048 1.347.138l-.825-2.286a.755.755 0 0 0-.122-.229l8.213 8.206-2.27-.71a6.405 6.405 0 0 1 .073 2.343h2.222c.204-.066.342-.188.342-.384V9.84a.298.298 0 0 0-.073-.204L20 10.727Z"/>
  <path fill="#3E7AE3" d="M10 11.379a1.26 1.26 0 1 0 .002-2.524A1.26 1.26 0 0 0 10 11.379Z"/>
  <path fill="#3E7AE3" fill-rule="evenodd" d="M5.82 10.118c0-2.31 1.87-4.18 4.18-4.18 2.31 0 4.18 1.87 4.18 4.18 0 2.31-1.87 4.18-4.18 4.18-2.31 0-4.18-1.87-4.18-4.18Zm2.302 2.05c.49.489 1.167.8 1.918.8a2.732 2.732 0 0 0 2.727-2.728 2.71 2.71 0 0 0-.8-1.918l-.522.514a2.004 2.004 0 0 0-1.405-.58c-.53 0-1.028.213-1.404.58a2 2 0 0 0 0 2.809l-.514.522Z" clip-rule="evenodd"/>
  <path fill="#fff" d="M11.344 3.767a6.498 6.498 0 0 0-2.637-.011l.716-2.277c.056-.205.187-.343.376-.343h.345c.189 0 .316.138.376.343l.824 2.288Z"/>
  <path fill="#fff" fill-rule="evenodd" d="m11.445 8.84.521-.52c.493.492.798 1.172.798 1.923a2.725 2.725 0 0 1-2.722 2.722c-.75 0-1.43-.305-1.924-.798l.521-.52a1.987 1.987 0 0 1 1.404-3.388c.529 0 1.028.207 1.402.58v.001ZM10 11.38a1.261 1.261 0 1 0 0-2.523 1.261 1.261 0 0 0 0 2.523Z" clip-rule="evenodd"/>
  <path fill="#fff" fill-rule="evenodd" d="M10 4.609a5.509 5.509 0 1 0 0 11.017 5.509 5.509 0 0 0 0-11.017Zm0 9.688a4.18 4.18 0 1 1-.001-8.36 4.18 4.18 0 0 1 0 8.36Z" clip-rule="evenodd"/>
  <path fill="#fff" d="m18.64 9.465-2.297-.722a6.515 6.515 0 0 1 .074 2.344h2.222c.205-.06.343-.188.343-.377v-.869c0-.189-.137-.32-.343-.376ZM3.51 10.117c0-.471.05-.93.146-1.374l-2.296.722c-.206.056-.343.187-.343.376v.87c0 .188.137.316.343.376h2.222a6.546 6.546 0 0 1-.073-.97Z"/>
</svg>
